!!!COM: Gaspar van Weerbeke
!!!CDT: ~1450-~1517
!!!OPR: Missa Se mieulx ne vient
!!!OTL: Gloria
!!!OMV: 2
!!!AGN: Mass
!!!SCT: Gas0104b
!!!SCA: Gas0104b
!!!voices: 4
**kern	**text	**kern	**text	**kern	**text	**kern	**text
*part4	*part4	*part3	*part3	*part2	*part2	*part1	*part1
*staff4	*staff4	*staff3	*staff3	*staff2	*staff2	*staff1	*staff1
*I"Bassus	*	*I"Tenor	*	*I"Altus	*	*I"Superius	*
*I'B	*	*I'T	*	*I'A	*	*I'S	*
*clefF4	*	*clefGv2	*	*clefGv2	*	*clefG2	*
*k[]	*	*k[]	*	*k[]	*	*k[]	*
*M3/2	*	*M3/2	*	*M3/2	*	*M3/2	*
*met(O)	*	*met(O)	*	*met(O)	*	*met(O)	*
=1	=1	=1	=1	=1	=1	=1	=1
2D	Et	1.r	.	2D	Et	1.r	.
4BB	in	.	.	4D	in	.	.
4GG	.	.	.	2G	ter-	.	.
4BB	ter-	.	.	.	.	.	.
4C	.	.	.	4G	-ra	.	.
=2	=2	=2	=2	=2	=2	=2	=2
2AA	-ra	1.r	.	4.A	pax	2r	.
.	.	.	.	16GLL	.	.	.
.	.	.	.	16AJJ	.	.	.
2GG	pax	.	.	2B	ho-	2d	Et
2G	ho-	.	.	4B	-mi-	4d	in
.	.	.	.	4B	-ni-	[4g	ter-
=3	=3	=3	=3	=3	=3	=3	=3
4E	-mi-	1.r	.	4B	-bus	4g]	.
*	*	*	*	*	*edit	*	*
4E	-ni-	.	.	4.c	bo-	4g	-ra
2F	-bus	.	.	.	.	4.a	pax
.	.	.	.	8B	.	.	.
.	.	.	.	4A	.	.	.
.	.	.	.	.	.	16gLL	.
.	.	.	.	.	.	16aJJ	.
*	*edit	*	*	*	*	*	*
4.G	bo-	.	.	4G	.	4b	ho-
.	.	.	.	[4d	.	4b	-mi-
8F	.	.	.	.	.	.	.
=4	=4	=4	=4	=4	=4	=4	=4
*lig	*	*	*	*	*	*	*
2D	.	1.r	.	4d]	.	4b	-ni-
.	.	.	.	2B	.	4b	-bus
2C	.	.	.	.	.	4.cc	bo-
*Xlig	*	*	*	*	*	*	*
.	.	.	.	4A	.	.	.
.	.	.	.	.	.	8b	.
2BB	.	.	.	2B	-ne,	4g	.
.	.	.	.	.	.	[4dd	.
!!LO:LB:g=original
=5	=5	=5	=5	=5	=5	=5	=5
2GG	-ne,	1.r	.	4r	.	4dd]	.
*	*	*	*	*	*Xedit	*	*
.	.	.	.	4B	bo-	2b	.
2r	.	.	.	2d	.	.	.
.	.	.	.	.	.	4a	.
4r	.	.	.	4B	-ne	4b	-ne
*	*Xedit	*	*	*	*	*	*
4G	bo-	.	.	4B	vo-	[4g	vo-
=6	=6	=6	=6	=6	=6	=6	=6
4E	.	1.r	.	2c	.	4g]	.
4C	.	.	.	.	.	4e	.
2G	-ne	.	.	4.B	-lun-	2d	-lun-
.	.	.	.	8G	.	.	.
2r	.	.	.	4A	.	4c	.
.	.	.	.	[4B	-ta-	[4d	-ta-
=7	=7	=7	=7	=7	=7	=7	=7
2GG	vo-	1.r	.	8B]L	.	8d]L	.
.	.	.	.	8A	.	8c	.
.	.	.	.	8G	.	8B	.
.	.	.	.	8FJ	.	8AJ	.
4AA	-lun-	.	.	8EL	.	8cL	.
.	.	.	.	8DJ	.	8dJ	.
4BB	.	.	.	2G	.	4B	.
4C	.	.	.	.	.	2A	.
4D	.	.	.	4F#i	.	.	.
=8	=8	=8	=8	=8	=8	=8	=8
4E	-ta-	1.r	.	2G	-tis.	4G	-tis.
4BB	.	.	.	.	.	4d	Lau-
2C	.	.	.	2r	.	4e	-da-
.	.	.	.	.	.	4e	-mus
2D	-tis.	.	.	4r	.	4d	te.
.	.	.	.	4d	Lau-	4f	Be-
!!LO:LB:g=original
=9	=9	=9	=9	=9	=9	=9	=9
2r	.	1.r	.	4e	-da-	4g	.
.	.	.	.	4e	-mus	4g	-ne-
4D	Lau-	.	.	4d	te.	4.a	-di-
4D	-da-	.	.	4f	Be-	.	.
.	.	.	.	.	.	8g	.
4C	-mus	.	.	4g	.	4e	-ci-
4C	te.	.	.	4g	-ne-	4e	-mus
=10	=10	=10	=10	=10	=10	=10	=10
*	*edit	*	*	*	*	*	*
4F	Be-	1.r	.	4.a	-di-	2d	te.
4D	-ne-	.	.	.	.	.	.
.	.	.	.	8g	.	.	.
4G	-di-	.	.	4e	.	4r	.
4B-i	-ci-	.	.	4d	-ci-	2dd	Ad-
2A	-mus.	.	.	2e	-mus	.	.
.	.	.	.	.	.	4cc	-o-
=11	=11	=11	=11	=11	=11	=11	=11
1.r	.	1D	Ad-	2d	te.	4b	-ra-
.	.	.	.	.	.	2a	.
.	.	.	.	4d	Ad-	.	.
.	.	.	.	8cL	.	2g	.
.	.	.	.	8BJ	.	.	.
.	.	2D	-o-	2A	-o-	.	.
.	.	.	.	.	.	4f#i	-mus
=12	=12	=12	=12	=12	=12	=12	=12
1.r	.	1G	-ra-	4G	.	2g	te.
.	.	.	.	4.B	-ra-	.	.
.	.	.	.	.	.	4r	.
.	.	.	.	8c	.	.	.
.	.	.	.	2d	-mus	4g	Glo-
.	.	2A	-mus	.	.	4e	-ri-
.	.	.	.	4c#i	.	4e	-fi-
!!LO:PB:g=original
=13	=13	=13	=13	=13	=13	=13	=13
1.r	.	2.B	te.	2d	te.	4d	.
.	.	.	.	.	.	4.g	-ca-
*	*	*	*	*	*edit	*	*
.	.	.	.	4G	Glo-	.	.
.	.	.	.	.	.	8a	.
*	*	*	*edit	*	*	*	*
.	.	4B	Glo-	4d	-ri-	4b	.
.	.	4.c	.	4e	-fi-	4g	.
.	.	.	.	4f#j	-ca-	4a	-mus
.	.	8B	.	.	.	.	.
=14	=14	=14	=14	=14	=14	=14	=14
*	*Xedit	*lig	*	*	*	*	*
1GG	Glo-	1.G	-ri-	2g	-mus,	1b	te,
.	.	.	.	4r	.	.	.
*	*	*	*	*	*Xedit	*	*
.	.	.	.	4g	glo-	.	.
2GG	-ri-	.	.	4g	-ri-	4r	.
*	*	*	*	*	*	*	*edit
.	.	.	.	4g	-fi-	4dd	glo-
=15	=15	=15	=15	=15	=15	=15	=15
2GG	-fi-	1d	.	4.g	-ca-	4dd	-ri-
*	*	*Xlig	*	*	*	*	*
.	.	.	.	.	.	4dd	-fi-
.	.	.	.	8f	.	.	.
4GG	-ca-	.	.	4d	.	4.dd	-ca-
4GG	.	.	.	4G	.	.	.
.	.	.	.	.	.	8cc	.
2D	.	2d	-fi-	4A	.	4.a	.
.	.	.	.	4B	.	.	.
.	.	.	.	.	.	8f	.
=16	=16	=16	=16	=16	=16	=16	=16
2C	.	4.e	-ca-	4.c	.	4.g	.
.	.	8d	.	8A	.	8f	.
4D	.	4B	.	4B	.	4d	.
4BB	.	4d	.	2G	-mus	4g	-mus
2AA	-mus	2c	-mus	.	.	2a	te.
.	.	.	.	4F#i	.	.	.
=17	=17	=17	=17	=17	=17	=17	=17
*	*	*lig	*	*	*	*	*Xedit
1.GG	te.	2B	te.	1G	te.	4d	Gra-
.	.	.	.	.	.	4d	-ti-
.	.	2G	.	.	.	4d	-as
*	*	*Xlig	*	*	*	*	*
.	.	.	.	.	.	2g	a-
.	.	2r	.	2r	.	.	.
.	.	.	.	.	.	4g	-gi-
!!LO:LB:g=original
=18	=18	=18	=18	=18	=18	=18	=18
2r	.	1.r	.	4D	Gra-	2a	-mus
.	.	.	.	4D	-ti-	.	.
4GG	Gra-	.	.	4D	-as	4.b	ti-
4GG	-ti-	.	.	2G	a-	.	.
.	.	.	.	.	.	8cc	.
4GG	-as	.	.	.	.	4dd	-bi
[4C	a-	.	.	4G	-gi-	[4cc	pro-
=19	=19	=19	=19	=19	=19	=19	=19
4C]	.	1.r	.	4A	-mus	8cc]L	.
.	.	.	.	.	.	8b	.
4C	-gi-	.	.	4A	ti-	8a	.
.	.	.	.	.	.	8gJ	.
2D	-mus	.	.	2A	-bi	4.f#j	.
.	.	.	.	.	.	8e	.
4E	ti-	.	.	4G	pro-	2g	-pter
4C	-bi	.	.	[4c	.	.	.
=20	=20	=20	=20	=20	=20	=20	=20
2F	pro-	1.r	.	4c]	.	4r	.
.	.	.	.	4A	-pter	4a	ma-
4D	.	.	.	4d	ma-	4f	.
2G	.	.	.	8cL	.	4g	.
.	.	.	.	8BJ	.	.	.
.	.	.	.	4A	.	2a	-gnam
4F#i	.	.	.	4A	-gnam	.	.
=21	=21	=21	=21	=21	=21	=21	=21
*	*	*	*Xedit	*	*	*	*
2G	-pter	4G	Gra-	4.G	glo-	2b	glo-
.	.	2d	.	.	.	.	.
.	.	.	.	8F	.	.	.
2r	.	.	.	4D	.	4a	-ri-
.	.	4B	-ti-	4d	-ri-	4g	.
2r	.	2A	-as	4e	.	2cc	-am
.	.	.	.	4f#j	-am	.	.
!!LO:LB:g=original
=22	=22	=22	=22	=22	=22	=22	=22
4GG	ma-	2G	a-	4g	.	4b	.
2D	.	.	.	2d	tu-	2a	tu-
.	.	4F#j	-gi-	.	.	.	.
4GG	-gnam	4G	.	4B	.	2g	.
4r	.	2D	-mus	2A	.	.	.
4D	glo-	.	.	.	.	4f#i	.
=23	=23	=23	=23	=23	=23	=23	=23
4BB	.	4r	.	2G	-am.	2g	-am.
4GG	-ri-	4G	ti-	.	.	.	.
4D	-am	4F#j	.	4r	.	2r	.
4E	.	4G	.	2g	Do-	.	.
2D	tu-	2A	.	.	.	2r	.
.	.	.	.	4f#i	.	.	.
=24	=24	=24	=24	=24	=24	=24	=24
1GG	-am.	1G	-bi.	4g	.	2d	Do-
.	.	.	.	4G	.	.	.
.	.	.	.	2B	-mi-	4d	-mi-
.	.	.	.	.	.	4d	-ne
2r	.	2r	.	2c	-ne	4.e	De-
.	.	.	.	.	.	16dLL	.
.	.	.	.	.	.	16cJJ	.
=25	=25	=25	=25	=25	=25	=25	=25
1.r	.	2G	Do-	4B	.	8dL	.
.	.	.	.	.	.	8c	.
.	.	.	.	2d	De-	8B	.
.	.	.	.	.	.	8AJ	.
.	.	2B	-mi-	.	.	4G	.
.	.	.	.	8cL	.	4d	.
.	.	.	.	8BJ	.	.	.
.	.	2c	-ne	2A	-us,	2e	.
=26	=26	=26	=26	=26	=26	=26	=26
1D	Do-	4B	.	4r	.	2d	-us,
.	.	2d	De-	2f	Rex	.	.
.	.	.	.	.	.	4r	.
.	.	8cL	.	4d	.	2dd	Rex
.	.	8BJ	.	.	.	.	.
4r	.	2A	-us,	2e	.	.	.
4A	.	.	.	.	.	4cc#i	.
!!LO:LB:g=original
=27	=27	=27	=27	=27	=27	=27	=27
4D	.	1.r	.	8dL	ce-	4.dd	ce-
.	.	.	.	8c	.	.	.
2G	-mi-	.	.	8B	.	.	.
.	.	.	.	8AJ	.	8cc	.
.	.	.	.	4G	.	4b	.
4F	.	.	.	4A	.	4a	.
2E	-ne	.	.	4B	-le-	4.g	-le-
.	.	.	.	4G	.	.	.
.	.	.	.	.	.	8e	.
=28	=28	=28	=28	=28	=28	=28	=28
4.D	De-	2r	.	2A	.	4.f	.
8C	.	.	.	.	.	8g	.
4AA	.	4A	Rex	4F	.	4a	.
4GG	-us,	4B-i	ce-	2G	-stis,	4d	-stis,
*	*	*	*	*	*	*	*edit
2r	.	8AL	.	.	.	4b-i	ce-
.	.	8GJ	.	.	.	.	.
*	*	*	*	*	*edit	*	*
.	.	[4F	-le-	[4c	ce-	[4a	.
=29	=29	=29	=29	=29	=29	=29	=29
1r	.	8F]L	.	8c]L	.	4a]	.
.	.	8DJ	.	8B-iJ	.	.	.
.	.	4E	.	4G	.	2g	-le-
.	.	2D	-stis,	2A	-le-	.	.
.	.	.	.	.	.	4f	.
4GG	Rex	4r	.	4G	.	4g	.
4D	ce-	[4d	De-	[4A	-stis,	4f	.
=30	=30	=30	=30	=30	=30	=30	=30
2E	-le-	4d]	.	4A]	.	4g	.
*	*	*	*	*	*Xedit	*	*
.	.	4c#i	.	4G	De-	4e	.
2D	-stis,	1d	-us	4A	.	2f	-stis,
.	.	.	.	4B-i	.	.	.
4F	De-	.	.	4A	.	4r	.
*	*	*	*	*	*	*	*Xedit
4G	.	.	.	4B-i	.	4d	De-
!!LO:PB:g=original
=31	=31	=31	=31	=31	=31	=31	=31
2D	-us	2r	.	4A	-us	4.f	.
.	.	.	.	4.d	Pa-	.	.
.	.	.	.	.	.	8g	.
2D	Pa-	2.f	Pa-	.	.	4a	.
.	.	.	.	8eL	.	.	.
.	.	.	.	8f	.	4b-i	.
.	.	.	.	8gJ	.	.	.
4F	.	.	.	4a	.	4a	-us
[4G	.	4d	.	[4g	.	[4dd	Pa-
=32	=32	=32	=32	=32	=32	=32	=32
4G]	.	2e	.	4g]	.	4dd]	.
4A	.	.	.	4e	.	4cc#i	.
2D	-ter	2d	-ter	2f	-ter	2dd	-ter
2D	om-	2f	om-	[2d	om-	2a	om-
=33	=33	=33	=33	=33	=33	=33	=33
4D	-ni-	4f	-ni-	4d]	.	4a	-ni-
4F	.	4f	-pot-	4c	-ni-	4a	-pot-
4C	-pot-	4e	.	2.g	-pot-	4cc	.
2G	.	2d	.	.	.	2b	.
4A	.	4c	.	[4e	-ens.	[4a	.
=34	=34	=34	=34	=34	=34	=34	=34
2E	-ens.	2B	.	2e]	.	4a]	.
.	.	.	.	.	.	4g	.
2F	Do-	2A	-ens.	4c	Do-	2a	-ens.
.	.	.	.	4f	.	.	.
4G	.	2r	.	4e	.	4g	Do-
[4A	.	.	.	4c	.	4cc	.
=35	=35	=35	=35	=35	=35	=35	=35
4A]	.	2r	.	4d	.	4b	.
2G	.	.	.	4B	.	4g	.
.	.	2A	Do-	4A	.	2a	-mi-
4F	.	.	.	4c	.	.	.
2G	-mi-	4G	.	4B	.	4d	-ne
.	.	4B	.	4G	.	[4g	Fi-
!!LO:LB:g=original
=36	=36	=36	=36	=36	=36	=36	=36
2D	-ne	2A	-mi-	2d	-mi-	4g]	.
.	.	.	.	.	.	4f	.
4r	.	2G	-ne	2B	-ne	4.g	.
2G	Fi-	.	.	.	.	.	.
.	.	.	.	.	.	8a	.
.	.	4r	.	4G	Fi-	4b	.
4F	.	[4d	Fi-	4A	.	8aL	.
.	.	.	.	.	.	8bJ	.
=37	=37	=37	=37	=37	=37	=37	=37
2E	.	4d]	.	2G	.	8ccL	.
.	.	.	.	.	.	8b	.
.	.	4c	.	.	.	8a	.
.	.	.	.	.	.	8gJ	.
1D	.	2.d	.	4.A	.	2f	-li
.	.	.	.	8F	.	.	.
.	.	.	.	4.f	.	4r	.
.	.	8cL	.	.	.	[4a	u-
.	.	8BJ	.	8e	.	.	.
=38	=38	=38	=38	=38	=38	=38	=38
2F	.	2A	-li	1c	-li	4a]	.
.	.	.	.	.	.	4f	.
*	*	*lig	*	*	*	*	*
*	*	*col	*	*	*	*	*
1C	-li	[1e	u-	.	.	2g	-ni-
.	.	.	.	4r	.	2cc	-ge-
.	.	.	.	4c	u-	.	.
=39	=39	=39	=39	=39	=39	=39	=39
4r	.	1e]	.	4.e	-ni-	4.cc	-ni-
4C	u-	.	.	.	.	.	.
.	.	.	.	8f	.	8b	.
4.E	-ni-	.	.	2g	-ge-	4g	.
.	.	.	.	.	.	4cc	.
8F	.	.	.	.	.	.	.
4G	-ge-	[2d	-ni-	4d	.	4b	.
4F	-ni-	.	.	[4f	-ni-	[4a	.
=40	=40	=40	=40	=40	=40	=40	=40
2D	-te	2d]	.	8f]L	.	8a]L	.
*	*	*Xcol	*	*	*	*	*
*	*	*Xlig	*	*	*	*	*
.	.	.	.	8e	.	8gJ	.
.	.	.	.	8d	.	4f	.
.	.	.	.	16cL	.	.	.
.	.	.	.	16BJJ	.	.	.
4r	.	4c	-ge-	4A	.	4e	.
*	*edit	*	*	*	*	*	*
2G	Je-	4B	.	2B	.	2d	-te
*	*	*lig	*	*	*	*	*
.	.	2G	-ni-	.	.	.	.
4E	.	.	.	4c	.	[4g	Je-
!!LO:LB:g=original
=41	=41	=41	=41	=41	=41	=41	=41
2D	.	2A	.	2d	-te	4g]	.
*	*	*Xlig	*	*	*	*	*
.	.	.	.	.	.	4f	.
2GG	-su,	2G	-te	4r	.	4e	.
.	.	.	.	8DL	Je-	2d	.
.	.	.	.	8EJ	.	.	.
4r	.	2r	.	8FL	.	.	.
.	.	.	.	16EL	.	.	.
.	.	.	.	16FJJ	.	.	.
*	*Xedit	*	*	*	*	*	*
4GG	Je-	.	.	[4G	.	4B	.
=42	=42	=42	=42	=42	=42	=42	=42
2D	-su	1.r	.	4G]	.	2A	-su
.	.	.	.	4F#i	.	.	.
4.E	Chri-	.	.	4G	-su	4.G	Chri-
.	.	.	.	4r	.	.	.
8F	.	.	.	.	.	8A	.
4G	.	.	.	4.G	Chri-	8BL	.
.	.	.	.	.	.	8cJ	.
[4GG	.	.	.	.	.	[4d	.
.	.	.	.	8A	.	.	.
=43	=43	=43	=43	=43	=43	=43	=43
4GG]	.	1.r	.	8BL	.	8d]L	.
.	.	.	.	8cJ	.	8eJ	.
4D	.	.	.	4A	.	4f	.
4E	.	.	.	4.G	.	4g	.
4.G	.	.	.	.	.	4.d	.
.	.	.	.	8A	.	.	.
.	.	.	.	8BL	.	.	.
8F	.	.	.	8cJ	.	8eL	.
[4D	.	.	.	[4d	.	8f	.
.	.	.	.	.	.	8gJ	.
=44	=44	=44	=44	=44	=44	=44	=44
8D]L	.	1.r	.	8d]L	.	4.a	.
8CJ	.	.	.	8e	.	.	.
4D	.	.	.	8f	.	.	.
.	.	.	.	8gJ	.	8b	.
4A	.	.	.	4e	.	4cc	.
4D	.	.	.	2d	.	2dd	.
2G	.	.	.	.	.	.	.
.	.	.	.	[4g	.	4b	.
=45	=45	=45	=45	=45	=45	=45	=45
2D	.	2r	.	4g]	.	2a	.
.	.	.	.	4f#i	.	.	.
1GGl	-ste.	1Gl	[Chri]-ste.	1gl	-ste.	1gl	-ste.
!!LO:LB:g=original
=46||	=46||	=46||	=46||	=46||	=46||	=46||	=46||
*M2/2	*	*M2/2	*	*M2/2	*	*M2/2	*
*met(C|)	*	*met(C|)	*	*met(C|)	*	*met(C|)	*
1r	.	1r	.	2G	Do-	1r	.
.	.	.	.	4A	.	.	.
.	.	.	.	4G	.	.	.
=47	=47	=47	=47	=47	=47	=47	=47
1r	.	1r	.	2.c	-mi-	2g	Do-
.	.	.	.	.	.	4a	.
.	.	.	.	4B	.	4g	.
=48	=48	=48	=48	=48	=48	=48	=48
1r	.	1r	.	4.A	-ne	2.cc	-mi-
.	.	.	.	8B	.	.	.
.	.	.	.	8cL	.	.	.
.	.	.	.	8dJ	.	.	.
.	.	.	.	4e	.	4b	.
=49	=49	=49	=49	=49	=49	=49	=49
1r	.	1r	.	4f	.	4a	-ne
.	.	.	.	2d	De-	8gL	.
.	.	.	.	.	.	8fJ	.
.	.	.	.	.	.	2e	.
.	.	.	.	4c	.	.	.
=50	=50	=50	=50	=50	=50	=50	=50
1r	.	1r	.	4B	.	4.d	De-
.	.	.	.	4.d	.	.	.
.	.	.	.	.	.	8e	.
.	.	.	.	.	.	8fL	.
.	.	.	.	8cL	.	8gJ	.
.	.	.	.	8B	.	4a	.
.	.	.	.	8AJ	.	.	.
=51	=51	=51	=51	=51	=51	=51	=51
1r	.	1r	.	4G	.	4b	.
.	.	.	.	4B	.	2g	.
*	*	*	*	*	*edit	*	*
.	.	.	.	2A	-us,	.	.
.	.	.	.	.	.	4f#i	.
!!LO:PB:g=original
=52	=52	=52	=52	=52	=52	=52	=52
1r	.	1r	.	2G	De-	4g	-us,
*	*	*	*	*	*	*	*edit
.	.	.	.	.	.	2dd	De-
.	.	.	.	4B	.	.	.
.	.	.	.	4c	.	4cc	.
=53	=53	=53	=53	=53	=53	=53	=53
1r	.	1r	.	4.d	.	4b	.
.	.	.	.	.	.	4.dd	.
.	.	.	.	8e	.	.	.
.	.	.	.	4f	.	.	.
.	.	.	.	.	.	8ccL	.
.	.	.	.	[4g	.	8b	.
.	.	.	.	.	.	8aJ	.
=54	=54	=54	=54	=54	=54	=54	=54
2r	.	1r	.	4g]	.	4g	.
.	.	.	.	8f#iL	.	4b	.
.	.	.	.	8eJ	.	.	.
2D	Do-	.	.	2f#i	.	2a	.
=55	=55	=55	=55	=55	=55	=55	=55
*	*	*	*	*	*Xedit	*	*
4E	.	1r	.	2g	-us,	2g	-us,
2G	.	.	.	.	.	.	.
.	.	.	.	4r	.	2r	.
8FL	.	.	.	[4c	A-	.	.
8EJ	.	.	.	.	.	.	.
=56	=56	=56	=56	=56	=56	=56	=56
2F	-mi-	1r	.	4c]	.	1r	.
.	.	.	.	8BL	.	.	.
.	.	.	.	8AJ	.	.	.
2G	-ne	.	.	4G	.	.	.
.	.	.	.	[4d	.	.	.
=57	=57	=57	=57	=57	=57	=57	=57
4r	.	1r	.	4d]	.	1r	.
2C	De-	.	.	2e	.	.	.
8BBL	.	.	.	8dL	.	.	.
8AAJ	.	.	.	8cJ	.	.	.
!!LO:LB:g=original
=58	=58	=58	=58	=58	=58	=58	=58
4GG	.	1r	.	4.B	.	1r	.
2D	.	.	.	.	.	.	.
.	.	.	.	8c	.	.	.
.	.	.	.	8dL	.	.	.
.	.	.	.	8BJ	.	.	.
[4E	.	.	.	[4c	.	.	.
=59	=59	=59	=59	=59	=59	=59	=59
4E]	.	1r	.	8c]L	.	1r	.
.	.	.	.	8BJ	.	.	.
8DL	.	.	.	2A	.	.	.
8CJ	.	.	.	.	.	.	.
2BB	-us,	.	.	.	.	.	.
.	.	.	.	4G	.	.	.
=60	=60	=60	=60	=60	=60	=60	=60
4r	.	1r	.	4B	.	1r	.
*	*edit	*	*	*	*	*	*
2AA	De-	.	.	2A	.	.	.
[4D	.	.	.	8GL	.	.	.
.	.	.	.	8FJ	.	.	.
=61	=61	=61	=61	=61	=61	=61	=61
*	*	*	*	*	*	*	*Xedit
4D]	.	1r	.	2E	.	4.g	A-
4C	.	.	.	.	.	.	.
.	.	.	.	.	.	8a	.
2D	-us,	.	.	4D	-gnus-	4b	.
.	.	.	.	[4F	-De-	[4a	.
=62	=62	=62	=62	=62	=62	=62	=62
1r	.	1r	.	8F]L	.	4a]	.
.	.	.	.	8GJ	.	.	.
.	.	.	.	4.A	.	8gL	.
.	.	.	.	.	.	8fJ	.
.	.	.	.	.	.	2e	.
.	.	.	.	8B	.	.	.
.	.	.	.	4c	.	.	.
!!LO:LB:g=original
=63	=63	=63	=63	=63	=63	=63	=63
*	*	*	*	*lig	*	*	*
4r	.	1r	.	2d	.	4d	-gnus
*	*Xedit	*	*	*	*	*	*
4.D	A-	.	.	.	.	4.f	De-
.	.	.	.	2f	.	.	.
*	*	*	*	*Xlig	*	*	*
8E	.	.	.	.	.	8g	.
4F	.	.	.	.	.	4a	.
=64	=64	=64	=64	=64	=64	=64	=64
4G	.	1r	.	2e	.	4b	.
4A	.	.	.	.	.	4cc	.
4.B	.	.	.	4d	-i,	2dd	-i,
.	.	.	.	[4g	Fi-	.	.
8G	.	.	.	.	.	.	.
=65	=65	=65	=65	=65	=65	=65	=65
4B	.	1r	.	4g]	.	1r	.
2A	.	.	.	4.f	.	.	.
.	.	.	.	8e	.	.	.
8GL	.	.	.	[4d	.	.	.
8FJ	.	.	.	.	.	.	.
=66	=66	=66	=66	=66	=66	=66	=66
2E	-gnus	1r	.	8d]L	.	1r	.
.	.	.	.	8BJ	.	.	.
.	.	.	.	4c	.	.	.
[2G	De-	.	.	4B	.	.	.
.	.	.	.	[4e	-li-	.	.
=67	=67	=67	=67	=67	=67	=67	=67
4G]	.	1r	.	4e]	.	4r	.
4F	.	.	.	2d	.	4.a	Fi-
2E	.	.	.	.	.	.	.
.	.	.	.	.	.	8f	.
.	.	.	.	4c#i	-us	4g	.
!!LO:LB:g=original
=68	=68	=68	=68	=68	=68	=68	=68
*	*	*	*	*	*edit	*	*
2D	-i,	1r	.	2.d	Pa-	4f	.
.	.	.	.	.	.	4.b-i	-li-
2r	.	.	.	.	.	.	.
.	.	.	.	.	.	8a	.
.	.	.	.	4c	.	4a	-us
=69	=69	=69	=69	=69	=69	=69	=69
4r	.	1r	.	2B-j	.	1r	.
2G	Fi-	.	.	.	.	.	.
.	.	.	.	2A	-tris,	.	.
4F	.	.	.	.	.	.	.
=70	=70	=70	=70	=70	=70	=70	=70
2E	.	1r	.	2r	.	4.g	Pa-
.	.	.	.	.	.	8e	.
4D	.	.	.	4r	.	4f	.
4F	-li-	.	.	[4d	fi-	4d	.
=71	=71	=71	=71	=71	=71	=71	=71
*	*	*	*	*	*	*	*edit
2E	-us	1r	.	4d]	.	2g	-tris.
.	.	.	.	4c	.	.	.
*	*edit	*	*	*	*	*	*
[2G	Pa-	.	.	4B	.	2r	.
.	.	.	.	[4e	-li-	.	.
=72	=72	=72	=72	=72	=72	=72	=72
4G]	.	1r	.	4e]	.	4r	.
4F	.	.	.	2d	-us	4.a	Fi-
2E	.	.	.	.	.	.	.
.	.	.	.	.	.	8f	.
.	.	.	.	4c#i	.	4g	.
!!LO:LB:g=original
=73	=73	=73	=73	=73	=73	=73	=73
*	*	*	*	*	*Xedit	*	*
4D	.	1r	.	2.d	Pa-	4f	.
4G	.	.	.	.	.	2b-i	-li-
4D	.	.	.	.	.	.	.
4F	.	.	.	4c	.	[4a	-us
=74	=74	=74	=74	=74	=74	=74	=74
2G	-tris,	1r	.	2B-i	.	4a]	.
.	.	.	.	.	.	4g	.
2r	.	.	.	4.A	.	4a	Pa-
.	.	.	.	.	.	[4cc	.
.	.	.	.	8Bny	.	.	.
=75	=75	=75	=75	=75	=75	=75	=75
*	*Xedit	*	*	*	*	*	*
2F	Pa-	1r	.	4c	.	4cc]	.
.	.	.	.	2d	.	8bL	.
.	.	.	.	.	.	8aJ	.
8GL	.	.	.	.	.	4b	.
8F	.	.	.	.	.	.	.
8E	.	.	.	8cL	.	8aL	.
8DJ	.	.	.	8dJ	.	8bJ	.
=76	=76	=76	=76	=76	=76	=76	=76
4C	.	1r	.	8eL	.	8ccL	.
.	.	.	.	8d	.	8b	.
2F	.	.	.	8c	.	8a	.
.	.	.	.	8BJ	.	8gJ	.
.	.	.	.	4c	.	4a	.
8EL	.	.	.	4d	.	[4b	.
8DJ	.	.	.	.	.	.	.
=77	=77	=77	=77	=77	=77	=77	=77
*	*	*	*	*lig	*edit	*	*
2E	.	1r	.	2G	-tris,	4b]	.
.	.	.	.	.	.	2g	.
*	*edit	*	*	*	*	*	*
2D	-tris,	.	.	2A	.	.	.
*	*	*	*	*Xlig	*	*	*
.	.	.	.	.	.	4f#i	.
!!LO:PB:g=original
=78	=78	=78	=78	=78	=78	=78	=78
4E	Pa-	1r	.	4.G	pa-	2.g	-tris,
8DL	.	.	.	.	.	.	.
8CJ	.	.	.	8A	.	.	.
4BB	.	.	.	4B	.	.	.
[4C	.	.	.	[4G	.	8fL	.
.	.	.	.	.	.	8eJ	.
=79	=79	=79	=79	=79	=79	=79	=79
4C]	.	1r	.	8G]L	.	2d	Pa-
.	.	.	.	8AJ	.	.	.
4BB	.	.	.	4B	.	.	.
4.C	.	.	.	4.E	.	4c	.
.	.	.	.	.	.	[4e	.
8D	.	.	.	8F	.	.	.
=80	=80	=80	=80	=80	=80	=80	=80
8EL	.	1r	.	8GL	.	4e]	.
8FJ	.	.	.	8AJ	.	.	.
2G	.	.	.	4B	.	4d	.
.	.	.	.	4G	.	4B	.
[4F	.	.	.	[4A	.	4c	.
=81	=81	=81	=81	=81	=81	=81	=81
8F]L	.	1r	.	8A]L	.	4d	.
8E	.	.	.	8G	.	.	.
8D	.	.	.	8F#i	.	4B	.
8CJ	.	.	.	8EJ	.	.	.
2D	.	.	.	2F#i	.	2A	.
=82	=82	=82	=82	=82	=82	=82	=82
*	*Xedit	*	*	*	*Xedit	*	*Xedit
1GGl	-tris.	1r	.	1Gl	-tris.	1Gl	-tris.
!!LO:LB:g=original
=83||	=83||	=83||	=83||	=83||	=83||	=83||	=83||
1r	.	1r	.	2G	Qui	2g	Qui
.	.	.	.	2G	tol-	2g	tol-
=84	=84	=84	=84	=84	=84	=84	=84
2r	.	1r	.	2A	-lis	2e	-lis
2G	Qui	.	.	2B	pec-	2d	pec-
=85	=85	=85	=85	=85	=85	=85	=85
2G	tol-	1r	.	4G	-ca-	4e	-ca-
.	.	.	.	2B	.	2g	.
2E	-lis	.	.	.	.	.	.
.	.	.	.	8AL	.	8fL	.
.	.	.	.	8GJ	.	8eJ	.
=86	=86	=86	=86	=86	=86	=86	=86
2D	pec-	1r	.	2A	-ta	2f	-ta
4BB	-ca-	.	.	4B	mun-	4g	mun-
4AA	.	.	.	4c	.	[4a	.
=87	=87	=87	=87	=87	=87	=87	=87
4.D	.	1r	.	2A	.	8a]L	.
.	.	.	.	.	.	8g	.
.	.	.	.	.	.	8f	.
8C	.	.	.	.	.	8eJ	.
4D	.	.	.	4F	.	4f	.
4E	.	.	.	[4G	.	[4e	.
=88	=88	=88	=88	=88	=88	=88	=88
4C	.	1r	.	4G]	.	4e]	.
4D	.	.	.	4F	.	2d	.
2AA	-ta	.	.	2E	.	.	.
.	.	.	.	.	.	4c#i	.
!!LO:LB:g=original
=89	=89	=89	=89	=89	=89	=89	=89
2BB	mun-	1r	.	4D	-di,	2d	-di,
.	.	.	.	2G	mi-	.	.
2AA	-di,	.	.	.	.	2r	.
.	.	.	.	4A	.	.	.
=90	=90	=90	=90	=90	=90	=90	=90
4GG	mi-	1r	.	2B	-se-	2g	mi-
4BB	.	.	.	.	.	.	.
*	*	*	*	*lig	*	*	*
2AA	-se-	.	.	2c	-re-	2a	-se-
=91	=91	=91	=91	=91	=91	=91	=91
*	*	*	*Xedit	*col	*	*	*
2GG	-re-	[1D	Mi-	4.d	.	4b	.
*	*	*	*	*Xlig	*	*	*
.	.	.	.	.	.	2dd	-re-
.	.	.	.	8e	.	.	.
*	*	*	*	*Xcol	*	*	*
2D	-re	.	.	[2f	-re	.	.
.	.	.	.	.	.	8ccL	.
.	.	.	.	.	.	8bJ	.
=92	=92	=92	=92	=92	=92	=92	=92
2r	.	1D_	.	4f]	.	4a	-re
.	.	.	.	2d	no-	2b	no-
8DL	no-	.	.	.	.	.	.
8E	.	.	.	.	.	.	.
8F	.	.	.	8cL	.	8aL	.
8GJ	.	.	.	8BJ	.	8gJ	.
=93	=93	=93	=93	=93	=93	=93	=93
4A	.	1D]	.	4A	.	4f#i	.
2B	.	.	.	4G	.	2g	.
.	.	.	.	2A	.	.	.
4A	.	.	.	.	.	4f#i	.
=94	=94	=94	=94	=94	=94	=94	=94
*	*	*lig	*	*	*	*	*
2B	-bis.	[1G	-se-	4.G	-bis.	1g	-bis.
.	.	.	.	8A	.	.	.
4r	.	.	.	8BL	.	.	.
.	.	.	.	8cJ	.	.	.
[4B	Qui	.	.	[4d	Qui	.	.
!!LO:LB:g=original
=95	=95	=95	=95	=95	=95	=95	=95
4B]	.	1G]	.	4d]	.	2b	Qui
8AL	.	.	.	8cL	.	.	.
8GJ	.	.	.	8BJ	.	.	.
4G	tol-	.	.	4B	tol-	2b	tol-
8FL	.	.	.	8AL	.	.	.
8EJ	.	.	.	8GJ	.	.	.
=96	=96	=96	=96	=96	=96	=96	=96
4F	-lis	1A	.	2c	-lis	2a	-lis
*	*	*Xlig	*	*	*	*	*
2G	pec-	.	.	.	.	.	.
.	.	.	.	2c	pec-	2a	pec-
4F	.	.	.	.	.	.	.
=97	=97	=97	=97	=97	=97	=97	=97
2G	-ca-	[1B	-re-	4.B	-ca-	4.d	-ca-
.	.	.	.	8c	.	8e	.
4D	-ta	.	.	4d	.	4f	.
[4E	mun-	.	.	[4G	-ta	[4g	.
=98	=98	=98	=98	=98	=98	=98	=98
4E]	.	2B]	.	8G]L	.	4g]	.
.	.	.	.	8AJ	.	.	.
8DL	.	.	.	2B	mun-	8fL	.
8CJ	.	.	.	.	.	8eJ	.
2BB	.	2B	-re	.	.	2d	-ta
.	.	.	.	8AL	.	.	.
.	.	.	.	8GJ	.	.	.
=99	=99	=99	=99	=99	=99	=99	=99
1AA	-di,	2.c	no-	4F	.	2r	.
.	.	.	.	4.A	.	.	.
.	.	.	.	.	.	2cc	mun-
.	.	.	.	8E	.	.	.
.	.	8BL	.	4F#j	.	.	.
.	.	8AJ	.	.	.	.	.
=100	=100	=100	=100	=100	=100	=100	=100
1r	.	[1G	-bis.	2G	-di,	1b	-di,
.	.	.	.	[2d	sus-	.	.
!!LO:PB:g=original
=101	=101	=101	=101	=101	=101	=101	=101
1GG	sus-	1G]	.	4d]	.	1b	sus-
.	.	.	.	4d	-ci-	.	.
.	.	.	.	2d	-pe	.	.
=102	=102	=102	=102	=102	=102	=102	=102
2GG	-ci-	1d	Sus-	1r	.	2b	-ci-
2GG	-pe	.	.	.	.	2b	-pe
=103	=103	=103	=103	=103	=103	=103	=103
2D	de-	2d	-ci-	2f	de-	2a	de-
2GG	-pre-	2d	-pe	2g	-pre-	2b	-pre-
=104	=104	=104	=104	=104	=104	=104	=104
2G	-ca-	2.d	de-	4.d	-ca-	2b	-ca-
.	.	.	.	8e	.	.	.
2F	-ti-	.	.	2f	-ti-	2a	-ti-
.	.	4d	-pre-	.	.	.	.
=105	=105	=105	=105	=105	=105	=105	=105
2G	-o-	2d	-ca-	4.d	-o-	2b	-o-
.	.	.	.	8e	.	.	.
4D	.	2d	-ti-	4f	.	4a	.
[4G	.	.	.	4g	.	[4b	.
=106	=106	=106	=106	=106	=106	=106	=106
4G]	.	2d	-o-	4.d	-nem	4b]	.
8FL	.	.	.	.	.	8aL	.
8EJ	.	.	.	8e	.	8gJ	.
2D	-nem	2d	-nem	2f	.	4.a	-nem
.	.	.	.	.	.	8b	.
=107	=107	=107	=107	=107	=107	=107	=107
2.C	no-	2.e	no-	2.g	no-	2.cc	no-
4E	.	8dL	.	8f#jL	.	8bL	.
.	.	8cJ	.	8eJ	.	8aJ	.
!!LO:LB:g=original
=108	=108	=108	=108	=108	=108	=108	=108
4D	.	4d	.	4f#j	.	4b	.
4C	.	4e	.	4g	.	4cc	.
4D	.	4d	.	4f#j	.	4b	.
*	*	*	*	*	*edit	*	*
[4C	.	[4e	.	[4g	-stram,	[4cc	.
=109	=109	=109	=109	=109	=109	=109	=109
8C]L	.	8e]L	.	4g]	.	4cc]	.
8BBJ	.	8dJ	.	.	.	.	.
4GG	.	4B	.	2G	no-	2b	.
2AA	.	2c	.	.	.	.	.
.	.	.	.	4F#i	.	4a	.
=110	=110	=110	=110	=110	=110	=110	=110
*	*	*	*	*	*Xedit	*	*
[1GG	-stram.	2.B	.	1G	-stram.	[1b	-stram.
.	.	4A	.	.	.	.	.
=111	=111	=111	=111	=111	=111	=111	=111
1GG]	.	1G	-stram.	2r	.	1b]	.
.	.	.	.	[2d	Qui	.	.
=112	=112	=112	=112	=112	=112	=112	=112
2.D	Qui	1r	.	4d]	.	1r	.
.	.	.	.	2f	se-	.	.
4C	.	.	.	4e	.	.	.
=113	=113	=113	=113	=113	=113	=113	=113
4D	se-	1r	.	4d	.	1r	.
4E	.	.	.	4.g	.	.	.
4C	.	.	.	.	.	.	.
.	.	.	.	8fL	.	.	.
4D	.	.	.	8e	.	.	.
.	.	.	.	8dJ	.	.	.
=114	=114	=114	=114	=114	=114	=114	=114
2E	-des	1r	.	2c	-des	1r	.
4D	ad	.	.	4r	.	.	.
[4F	dex-	.	.	4d	ad	.	.
!!LO:LB:g=original
=115	=115	=115	=115	=115	=115	=115	=115
4F]	.	1r	.	2f	dex-	4a	Qui
4D	-te-	.	.	.	.	2dd	se-
2A	-ram	.	.	2e	-te-	.	.
.	.	.	.	.	.	4cc	.
=116	=116	=116	=116	=116	=116	=116	=116
4r	.	1r	.	4.d	-ram	4b	.
4.B	Pa-	.	.	.	.	4.dd	.
.	.	.	.	8e	.	.	.
.	.	.	.	4f	.	.	.
8AL	.	.	.	.	.	8ccL	.
8G	.	.	.	[4g	Pa-	8b	.
8FJ	.	.	.	.	.	8aJ	.
=117	=117	=117	=117	=117	=117	=117	=117
2G	.	1r	.	4g]	.	2b	.
.	.	.	.	8fL	.	.	.
.	.	.	.	8eJ	.	.	.
*	*	*	*	*lig	*	*	*
2D	-tris,	.	.	2f	-tris,	2a	-des
=118	=118	=118	=118	=118	=118	=118	=118
*	*edit	*	*	*	*	*	*
2G	Pa-	1r	.	2d	.	1r	.
*	*	*	*	*Xlig	*	*	*
4E	.	.	.	4c	.	.	.
4D	.	.	.	4B	.	.	.
=119	=119	=119	=119	=119	=119	=119	=119
4C	.	1r	.	2e	mi-	2r	.
*lig	*	*	*	*	*	*	*
2D	.	.	.	.	.	.	.
.	.	.	.	2d	-se-	4d	ad
[4E	.	.	.	.	.	[4g	dex-
=120	=120	=120	=120	=120	=120	=120	=120
4E]	.	1r	.	4c	-re-	4g]	.
*Xlig	*	*	*	*	*	*	*
4D	.	.	.	4d	.	4f	-te-
4A	.	.	.	4c	-re	4e	.
4F	.	.	.	4d	.	[4a	-ram
=121	=121	=121	=121	=121	=121	=121	=121
2E	.	1r	.	4e	no-	4a]	.
.	.	.	.	4c	.	2g	Pa-
2D	-tris,	.	.	2d	-bis.	.	.
.	.	.	.	.	.	4f#i	.
!!LO:LB:g=original
=122	=122	=122	=122	=122	=122	=122	=122
*	*Xedit	*	*	*	*	*	*
1E	mi-	1G	Quo-	2r	.	4g	.
.	.	.	.	.	.	2b	.
.	.	.	.	2G	Quo-	.	.
.	.	.	.	.	.	8aL	.
.	.	.	.	.	.	8gJ	.
=123	=123	=123	=123	=123	=123	=123	=123
2D	-se-	2.d	-ni-	2A	-ni-	2f#i	-tris,
[2G	-re-	.	.	2B	.	4r	.
.	.	4c	.	.	.	4g	mi-
=124	=124	=124	=124	=124	=124	=124	=124
2G]	.	2A	-am	2c	-am	4.a	-se-
.	.	.	.	.	.	8b	.
2F#j	.	2A	tu	2A	tu	2cc	-re-
=125	=125	=125	=125	=125	=125	=125	=125
4G	-re	2.G	so-	4B	.	2.b	.
2GG	no-	.	.	2d	so-	.	.
4C	.	4E	.	4e	.	4g	.
=126	=126	=126	=126	=126	=126	=126	=126
4AA	.	4F#j	-lus	4c	-lus	4a	-re
4GG	.	4G	.	4B	.	2b	no-
4D	.	4D	san-	[2d	san-	.	.
4GG	.	4G	.	.	.	8aL	.
.	.	.	.	.	.	8gJ	.
=127	=127	=127	=127	=127	=127	=127	=127
4D	.	4F#j	.	4d]	.	4a	.
4E	.	4G	.	4c	.	2g	.
2D	.	2A	.	2d	.	.	.
.	.	.	.	.	.	4f#i	.
=128	=128	=128	=128	=128	=128	=128	=128
1GG	-bis.	[1G	-ctus.	1B	-ctus,	1g	-bis.
!!LO:PB:g=original
=129	=129	=129	=129	=129	=129	=129	=129
2BB	Quo-	1G]	.	2r	.	2d	Quo-
2C	.	.	.	2G	tu	2e	.
=130	=130	=130	=130	=130	=130	=130	=130
4BB	.	1r	.	2B	so-	4d	.
2E	-ni-	.	.	.	.	2g	-ni-
.	.	.	.	2c	-lus	.	.
4F	.	.	.	.	.	4a	.
=131	=131	=131	=131	=131	=131	=131	=131
4.G	-am	1r	.	4B	.	2b	-am
*	*	*	*	*	*edit	*	*
.	.	.	.	2d	san-	.	.
8F	.	.	.	.	.	.	.
4D	.	.	.	.	.	2r	.
[4G	tu	.	.	8cL	.	.	.
.	.	.	.	8BJ	.	.	.
=132	=132	=132	=132	=132	=132	=132	=132
4G]	.	1r	.	2A	.	2r	.
4F#i	.	.	.	.	.	.	.
2G	.	.	.	4G	.	2g	tu
.	.	.	.	[4B	.	.	.
=133	=133	=133	=133	=133	=133	=133	=133
2GG	so-	1r	.	4B]	.	2b	so-
.	.	.	.	2G	.	.	.
2AA	.	.	.	.	.	2cc	-lus
.	.	.	.	4F#i	.	.	.
=134	=134	=134	=134	=134	=134	=134	=134
2GG	-lus	2G	Tu	2G	-ctus.	4b	.
.	.	.	.	.	.	2dd	san-
2G	san-	2B	so-	4.d	Tu	.	.
.	.	.	.	.	.	8ccL	.
.	.	.	.	8e	.	8bJ	.
!!LO:LB:g=original
=135	=135	=135	=135	=135	=135	=135	=135
2F	.	2c	-lus	2f	.	2a	.
2G	.	4B	.	4.d	so-	4g	.
*	*	*	*edit	*	*	*	*
.	.	[4d	Do-	.	.	4b	.
.	.	.	.	8e	.	.	.
=136	=136	=136	=136	=136	=136	=136	=136
4F	.	4d]	.	4f	.	4a	.
4G	.	8cL	.	2d	-lus	2g	.
.	.	8BJ	.	.	.	.	.
2D	.	2A	.	.	.	.	.
*	*	*	*	*	*Xedit	*	*
.	.	.	.	4d	Do-	4f#i	.
=137	=137	=137	=137	=137	=137	=137	=137
4E	.	4G	.	4B	.	4g	-ctus.
2G	.	2B	.	4G	.	4.d	Tu
.	.	.	.	4.d	.	.	.
.	.	.	.	.	.	8eL	.
8FL	.	8AL	.	.	.	8f	.
8EJ	.	8GJ	.	8e	.	8gJ	.
=138	=138	=138	=138	=138	=138	=138	=138
2D	-ctus.	4.F	-mi-	2f	.	4.a	so-
.	.	8D	.	.	.	8b	.
4G	Tu	4E	-nus,	4g	.	4cc	-lus
4F	.	4D	.	[4a	.	4dd	Do-
=139	=139	=139	=139	=139	=139	=139	=139
*lig	*	*	*	*	*	*	*
2G	so-	4d	Do-	4a]	.	4b	.
.	.	2d	-mi-	2g	-mi-	4g	.
2A	.	.	.	.	.	2cc	.
*Xlig	*	*	*	*	*	*	*
.	.	4c	.	4f#i	.	.	.
=140	=140	=140	=140	=140	=140	=140	=140
2G	-lus	[1d	-nus.	2g	-nus.	2b	.
4F	.	.	.	2r	.	4a	.
[4G	Do-	.	.	.	.	[4b	.
!!LO:LB:g=original
=141	=141	=141	=141	=141	=141	=141	=141
4G]	.	1d_	.	4G	Tu	4b]	.
4F	.	.	.	4A	.	4a	.
2G	.	.	.	4B	.	4g	.
.	.	.	.	4G	.	4b	.
=142	=142	=142	=142	=142	=142	=142	=142
2D	.	1d]	.	2A	so-	4a	.
.	.	.	.	.	.	2dd	.
2G	.	.	.	2B	-lus	.	.
.	.	.	.	.	.	8ccL	.
.	.	.	.	.	.	8bJ	.
=143	=143	=143	=143	=143	=143	=143	=143
2F	-mi-	[1f	Tu	2c	Al-	2a	-mi-
2D	-nus.	.	.	2d	-tis-	8aL	-nus.
.	.	.	.	.	.	8g	.
.	.	.	.	.	.	8f	.
.	.	.	.	.	.	8eJ	.
=144	=144	=144	=144	=144	=144	=144	=144
4.D	Tu	2f]	.	4.d	-si-	2d	Tu
8E	.	.	.	8c	.	.	.
4F	.	2d	so-	4A	.	4a	so-
[4G	so-	.	.	4G	-mus,	[4b-j	.
=145	=145	=145	=145	=145	=145	=145	=145
*	*	*lig	*	*	*	*	*
8G]L	.	1e	-lus	2r	.	8b-]L	.
8F	.	.	.	.	.	8aJ	.
8E	.	.	.	.	.	4.cc	.
8DJ	.	.	.	.	.	.	.
2C	.	.	.	2c	Je-	.	.
.	.	.	.	.	.	8b-jL	.
.	.	.	.	.	.	8a	.
.	.	.	.	.	.	8gJ	.
=146	=146	=146	=146	=146	=146	=146	=146
*	*	*	*	*lig	*	*	*
1D	-lus	1d	.	2A	.	2.f	-lus
*	*	*Xlig	*	*	*	*	*
.	.	.	.	2B-j	.	.	.
*	*	*	*	*Xlig	*	*	*
.	.	.	.	.	.	4g	.
!!LO:LB:g=original
=147	=147	=147	=147	=147	=147	=147	=147
*	*	*	*Xedit	*	*	*	*
1D	Al-	1f	Al-	2.A	-su	1a	Al-
.	.	.	.	[4d	Chri-	.	.
=148	=148	=148	=148	=148	=148	=148	=148
2D	-tis-	2f	-tis-	4d]	.	2a	-tis-
.	.	.	.	8cL	.	.	.
.	.	.	.	8BJ	.	.	.
2D	-si-	2f	-si-	2A	.	2a	-si-
=149	=149	=149	=149	=149	=149	=149	=149
1D	-mus,	1f	-mus,	4.d	-ste.	2d	-mus,
.	.	.	.	8e	.	.	.
.	.	.	.	2f	.	2dd	Je-
=150	=150	=150	=150	=150	=150	=150	=150
2E	Je-	2e	Je-	[1g	Cum	2cc	.
[2G	.	[2d	.	.	.	[2b	-su
=151	=151	=151	=151	=151	=151	=151	=151
2G]	.	4d]	.	2g]	.	4b]	.
.	.	4A	.	.	.	4a	.
2A	-su	2c	-su	4.e	San-	[2a	Chri-
.	.	.	.	8f	.	.	.
=152	=152	=152	=152	=152	=152	=152	=152
*lig	*	*	*	*	*	*	*
1E	Chri-	1B	Chri-	4e	.	2a]	.
.	.	.	.	4.g	.	.	.
.	.	.	.	.	.	2g	.
.	.	.	.	8fL	.	.	.
.	.	.	.	8e	.	.	.
.	.	.	.	8dJ	.	.	.
!!LO:PB:g=original
=153	=153	=153	=153	=153	=153	=153	=153
1F	.	1A	-ste.	2c	.	1a	-ste.
*Xlig	*	*	*	*	*	*	*
.	.	.	.	2d	.	.	.
=154	=154	=154	=154	=154	=154	=154	=154
*	*	*lig	*	*	*	*	*
2E	-ste.	2G	Cum	2e	-cto	2r	.
[2G	Cum	2B	.	4.d	Spi-	2g	Cum
.	.	.	.	8e	.	.	.
=155	=155	=155	=155	=155	=155	=155	=155
2G]	.	1A	San-	4d	.	2.a	San-
*	*	*Xlig	*	*	*	*	*
.	.	.	.	4.f	.	.	.
2F	.	.	.	.	.	.	.
.	.	.	.	8eL	.	.	.
.	.	.	.	8d	.	8gL	.
.	.	.	.	8cJ	.	8aJ	.
=156	=156	=156	=156	=156	=156	=156	=156
*lig	*	*	*	*	*	*	*
2G	San-	1G	-cto	2B	.	2b	.
2E	.	.	.	4B	-ri-	2g	-cto
*Xlig	*	*	*	*	*	*	*
.	.	.	.	[4c	-tu,	.	.
=157	=157	=157	=157	=157	=157	=157	=157
2F	-cto	2r	.	4c]	.	2cc	Spi-
.	.	.	.	8BL	.	.	.
.	.	.	.	8AJ	.	.	.
[2G	Spi-	[2d	Spi-	2G	.	4.b	.
.	.	.	.	.	.	8a	.
=158	=158	=158	=158	=158	=158	=158	=158
2G]	.	2d]	.	2r	.	8gL	.
.	.	.	.	.	.	8fJ	.
.	.	.	.	.	.	2g	.
*	*	*	*	*	*edit	*	*
2E	-ri-	2c	.	2G	spi-	.	.
.	.	.	.	.	.	4e	.
!!LO:LB:g=original
=159	=159	=159	=159	=159	=159	=159	=159
1D	-tu,	2.d	-ri-	2A	.	4.f	-ri-
.	.	.	.	.	.	8g	.
.	.	.	.	4D	.	4b-i	.
.	.	4c	.	[4F	-ri-	[4a	.
=160	=160	=160	=160	=160	=160	=160	=160
1r	.	1A	-tu,	8F]L	.	8a]L	.
.	.	.	.	8G	.	8g	.
.	.	.	.	8A	.	8f	.
.	.	.	.	8BJ	.	8eJ	.
.	.	.	.	4.c	-tu,	2f	-tu,
.	.	.	.	16BLL	.	.	.
.	.	.	.	16AJJ	.	.	.
=161	=161	=161	=161	=161	=161	=161	=161
!!LO:TX:t=[whole] = [whole-dot]
!!LO:TX:a:t=[3]
*M3/2	*	*M3/2	*	*M3/2	*	*M3/2	*
*met(3)	*	*met(3)	*	*met(3)	*	*met(3)	*
*	*	*col	*	*col	*Xedit	*col	*
[1.C	in	1e	in	[1G.	in	1g	in
.	.	[2e	glo-	.	.	[2g	glo-
=162	=162	=162	=162	=162	=162	=162	=162
1.C]	.	2e]	.	2G]	.	2g]	.
.	.	1e	-ri-	1E	glo-	1cc	-ri-
*	*	*Xcol	*	*Xcol	*	*Xcol	*
.	.	.	.	.	.	.	.
=163	=163	=163	=163	=163	=163	=163	=163
*lig	*	*	*	*lig	*	*	*
2GG	glo-	1d	-a	2G	-ri-	1b	-a
2G	.	.	.	2B	.	.	.
*Xlig	*	*	*	*Xlig	*	*	*
2A	-ri-	2c	.	2c	.	2a	.
=164	=164	=164	=164	=164	=164	=164	=164
*lig	*	*col	*	*lig	*	*	*
2G	-a	1B	De-	2d	-a	1.b	De-
2.E	.	.	.	2.e	.	.	.
*Xlig	*	*	*	*Xlig	*	*	*
.	.	[2G	.	.	.	.	.
4F	.	.	.	4d	.	.	.
!!LO:LB:g=original
=165	=165	=165	=165	=165	=165	=165	=165
2G	De-	2G]	.	4B	.	2g	.
.	.	.	.	4c	.	.	.
1D	-i	1A	-i	1d	De-	2.f	-i
*	*	*Xcol	*	*	*	*	*
.	.	.	.	.	.	4e	.
=166	=166	=166	=166	=166	=166	=166	=166
2.E	Pa-	2.G	Pa-	2B	.	2.g	Pa-
.	.	.	.	1G	.	.	.
4F	.	4A	.	.	.	4f	.
2G	.	2B	.	.	.	2d	.
=167	=167	=167	=167	=167	=167	=167	=167
*	*	*	*	*lig	*	*	*
2.C	.	2.c	.	2G	-i	2.e	.
.	.	.	.	1E	.	.	.
*	*	*	*	*Xlig	*	*	*
4D	.	4B	.	.	.	4d	.
2E	.	2G	.	.	.	2B	.
=168	=168	=168	=168	=168	=168	=168	=168
2.AA	.	2.A	.	1e	Pa-	2.c	.
4BB	.	4G	.	.	.	4B	.
2C	.	2E	.	2c	.	2e	.
=169	=169	=169	=169	=169	=169	=169	=169
*lig	*	*	*	*	*	*	*
2GG	.	1G	.	1B	.	2d	.
1AA	.	.	.	.	.	1c	-tris.
*Xlig	*	*	*	*	*	*	*
.	.	2F#i	.	2A	.	.	.
=170	=170	=170	=170	=170	=170	=170	=170
*col	*	*	*	*col	*	*col	*
1GG	-tris.	[1.G	-tris.	1B	-tris.	[1.b	A-
*	*	*	*	*lig	*	*	*
[2GG	A-	.	.	[2d	A-	.	.
!!LO:LB:g=original
=171	=171	=171	=171	=171	=171	=171	=171
2GG]	.	1.G]	.	2d]	.	2b]	.
1C	.	.	.	1e	.	1cc	.
*Xcol	*	*	*	*Xlig	*	*Xcol	*
.	.	.	.	.	.	.	.
=172	=172	=172	=172	=172	=172	=172	=172
2D	.	1.r	.	[1.d	.	2b	.
2.F	.	.	.	.	.	2.a	.
4E	.	.	.	.	.	4g	.
=173	=173	=173	=173	=173	=173	=173	=173
2D	.	1.r	.	2d]	.	2f	.
*	*	*	*	*lig	*	*	*
2AA	.	.	.	2c	.	2e	.
2BB	.	.	.	2B	.	2d	.
*	*	*	*	*Xlig	*	*	*
=174	=174	=174	=174	=174	=174	=174	=174
1C	.	1.r	.	2G	.	1g	.
.	.	.	.	1A	.	.	.
2D	.	.	.	.	.	2f#i	.
=175	=175	=175	=175	=175	=175	=175	=175
!	!	!LO:N:vis=1	!	!	!	!	!
1E	.	1.r	.	[1.Gl	-men.	[1.gl	-men.
2BB	.	.	.	.	.	.	.
=176	=176	=176	=176	=176	=176	=176	=176
*lig	*	*	*	*	*	*	*
2C	.	[1.Gl	[A]-men.	1.G_	.	1.g_	.
2BB	.	.	.	.	.	.	.
*Xlig	*	*	*	*	*	*	*
2C	.	.	.	.	.	.	.
=177	=177	=177	=177	=177	=177	=177	=177
1.GGl	-men.	1.G]	.	1.G]	.	1.g]	.
==	==	==	==	==	==	==	==
*-	*-	*-	*-	*-	*-	*-	*-
!!!system-decoration: [*]
!!!RDF**kern: j = editorial accidental, optional, paren up
!!!RDF**kern: i = editorial accidental
!!!RDF**kern: l = terminal breve
!!!PTL: Gaspar van Weerbeke: Collected Works. I. Masses, Part 1
!!!ISBN: 978-1-59551-515-5
!!!PPR: American Institute of Musicology
!!!PC#: Corpus Mensurabilis Musicae 106/I.1
!!!PDT: 2016
!!!PED: Pavanello, Agnese
!!!YEC: Copyright 2014, Pavanello, Agnese
!!!YEM: CC-BY-NC 4.0 (https://creativecommons.org/licenses/by-nc/4.0/legalcode)
!!!EED: Mair-Gruber, Roland
!!!EEV: 2021/11/08
!!!title: @{OPR} &mdash; @{OTL}
!!!muse2ps: C^@{COM}^i2I150v90,90,90,120c122z18l2700t130
